X: 4653
T: Boxwood, The
R: jig
M: 6/8
K: Eminor
|:GFE B2A|GEF GFE|FED ABG|F2d BAF|
GFE B2A|GEF GAB|AFd BAF|1 GEE E2F:|2 GEE E2A||
|:Bef e2d|Bee fdB|AFd BAF|FEF DFA|
Bef e2d|Bge fdB|AFd BAF|1 GEE E2A:|2 GEE E2F||

